svg/shield-checkmark.svg

<?xml version="1.0" encoding="UTF-8" standalone="no"?>
<svg
   xmlns:dc="http://purl.org/dc/elements/1.1/"
   xmlns:cc="http://creativecommons.org/ns#"
   xmlns:rdf="http://www.w3.org/1999/02/22-rdf-syntax-ns#"
   xmlns:svg="http://www.w3.org/2000/svg"
   xmlns="http://www.w3.org/2000/svg"
   xmlns:sodipodi="http://sodipodi.sourceforge.net/DTD/sodipodi-0.dtd"
   xmlns:inkscape="http://www.inkscape.org/namespaces/inkscape"
   class="ionicon"
   viewBox="0 0 512 512"
   version="1.1"
   id="svg6"
   sodipodi:docname="shield-checkmark.svg"
   inkscape:version="1.0.2 (e86c8708, 2021-01-15)">
  <metadata
     id="metadata12">
    <rdf:RDF>
      <cc:Work
         rdf:about="">
        <dc:format>image/svg+xml</dc:format>
        <dc:type
           rdf:resource="http://purl.org/dc/dcmitype/StillImage" />
      </cc:Work>
    </rdf:RDF>
  </metadata>
  <defs
     id="defs10" />
  <sodipodi:namedview
     pagecolor="#ffffff"
     bordercolor="#666666"
     borderopacity="1"
     objecttolerance="10"
     gridtolerance="10"
     guidetolerance="10"
     inkscape:pageopacity="0"
     inkscape:pageshadow="2"
     inkscape:window-width="689"
     inkscape:window-height="480"
     id="namedview8"
     showgrid="false"
     inkscape:zoom="1.3027344"
     inkscape:cx="256"
     inkscape:cy="256"
     inkscape:window-x="44"
     inkscape:window-y="25"
     inkscape:window-maximized="0"
     inkscape:current-layer="svg6" />
  <title
     id="title2">Shield Checkmark</title>
  <path
     style="color:#000000;font-style:normal;font-variant:normal;font-weight:normal;font-stretch:normal;font-size:medium;line-height:normal;font-family:sans-serif;font-variant-ligatures:normal;font-variant-position:normal;font-variant-caps:normal;font-variant-numeric:normal;font-variant-alternates:normal;font-variant-east-asian:normal;font-feature-settings:normal;font-variation-settings:normal;text-indent:0;text-align:start;text-decoration:none;text-decoration-line:none;text-decoration-style:solid;text-decoration-color:#000000;letter-spacing:normal;word-spacing:normal;text-transform:none;writing-mode:lr-tb;direction:ltr;text-orientation:mixed;dominant-baseline:auto;baseline-shift:baseline;text-anchor:start;white-space:normal;shape-padding:0;shape-margin:0;inline-size:0;clip-rule:nonzero;display:inline;overflow:visible;visibility:visible;isolation:auto;mix-blend-mode:normal;color-interpolation:sRGB;color-interpolation-filters:linearRGB;solid-color:#000000;solid-opacity:1;vector-effect:none;fill:#000000;fill-opacity:1;fill-rule:nonzero;stroke-width:1;stroke-linecap:butt;stroke-linejoin:miter;stroke-miterlimit:4;stroke-dasharray:none;stroke-dashoffset:0;stroke-opacity:1;color-rendering:auto;image-rendering:auto;shape-rendering:auto;text-rendering:auto;enable-background:accumulate;stop-color:#000000;stop-opacity:1;stroke:none;opacity:1"
     d="M 479.07,111.36 C 478.60481,104.00438 473.1751,97.918143 465.92,96.62 379.42,81.1 343.31,69.88 262.59,33.42 c -4.1893,-1.893539 -8.9907,-1.893539 -13.18,0 -80.72,36.46 -116.83,47.68 -203.33,63.2 -7.255096,1.298143 -12.68481,7.38438 -13.15,14.74 -3.85,61.11 4.36,118.05 24.43,169.24 16.435216,41.75492 40.758149,79.95388 71.64,112.51 53.47,56.73 110.24,81.37 121.07,85.73 3.84852,1.5568 8.15148,1.5568 12,0 10.83,-4.36 67.6,-29 121.07,-85.73 30.83173,-32.56814 55.10662,-70.7663 71.5,-112.51 20.07,-51.19 28.28,-108.13 24.43,-169.24 z m -131,75.11 -110.8,128 c -2.87948,3.33599 -7.0074,5.33664 -11.41,5.53 h -0.66 c -4.18752,9.9e-4 -8.20854,-1.63973 -11.2,-4.57 l -49.2,-48.2 c -6.31262,-6.18559 -6.41558,-16.31738 -0.23,-22.63 6.18559,-6.31261 16.31738,-6.41559 22.63,-0.23 l 37,36.29 99.7,-115.13 c 5.78243,-6.68265 15.88735,-7.41242 22.57,-1.62999 6.68264,5.78242 7.41242,15.88734 1.63,22.56999 z"
     id="path4" />
</svg>

<svg xmlns="http://www.w3.org/2000/svg" width="512" height="512" viewBox="0 0 512 512"><title>ionicons-v5-s</title><path d="M479.07,111.36a16,16,0,0,0-13.15-14.74c-86.5-15.52-122.61-26.74-203.33-63.2a16,16,0,0,0-13.18,0C168.69,69.88,132.58,81.1,46.08,96.62a16,16,0,0,0-13.15,14.74c-3.85,61.11,4.36,118.05,24.43,169.24A349.47,349.47,0,0,0,129,393.11c53.47,56.73,110.24,81.37,121.07,85.73a16,16,0,0,0,12,0c10.83-4.36,67.6-29,121.07-85.73A349.47,349.47,0,0,0,454.64,280.6C474.71,229.41,482.92,172.47,479.07,111.36Zm-131,75.11-110.8,128A16,16,0,0,1,225.86,320h-.66a16,16,0,0,1-11.2-4.57l-49.2-48.2a16,16,0,1,1,22.4-22.86l37,36.29L323.9,165.53a16,16,0,0,1,24.2,20.94Z"/></svg>
